X:16698
T:The First House In Connaught
H:Referred to as "Terry Moylan's" by PC. The first house in Galway after leaving 
H:Clare by he Gort road belongs to Terry Moylan
R:Reel
S:Paddy Canny and Peter O'Loughlin, Clare (fiddles)
N:As played (P O'L much the louder)
Z:Bernie Stocks
M:4/4
K:G
DG(3.G.G.G AG(3.G.G.G | BGdB BGAF | DF(3.F.F.F AF(3.F.F.F | ABcA BGAF |
DG(3.G.G.G AG(3.G.G.G | BGdB BGAF | defg agfd |1 cAFA G3E :|2 cAFA G2Bd ||
~g3a gfdf | g2bg afde | f2de f2de | fgaf bgaf |
~g3a gfdf | g2bg agfe | defg agfd |1 cAFA G2Bd :|2 cAFA G3E ||
